assets/images/reward.svg

<svg height="40" viewBox="0 0 40 40" width="40" xmlns="http://www.w3.org/2000/svg"><g fill="#1c6afd" fill-rule="evenodd"><rect fill-opacity=".05" height="40" rx="5" width="40"/><path d="m28.652422 25.1176865c0 2.7844278-3.7961741 4.8823135-8.8272738 4.8823135-5.0310996 0-8.8251482-2.0978857-8.8251482-4.8823135v-9.2332475c0-2.7844278 3.7940486-4.884439 8.8251482-4.884439 4.9821778 0 8.7512463 2.0593692 8.8240753 4.803408.0020435.0265724.0031985.053666.0031985.081031zm-15.7523208-1.5198361.0001114 1.5198361c0 1.4092181 2.9608457 2.9842265 6.9249356 2.9842265 3.96409 0 6.9270612-1.5771339 6.9270612-2.9842265l.0002525-1.5192315c-1.5908746 1.1027065-4.0583005 1.7849212-6.9273137 1.7849212-2.8684231 0-5.3347331-.682625-6.925047-1.7855258zm6.925047-2.8289724c-2.8684231 0-5.3347331-.6826251-6.925047-1.7855259l.0001114 1.5177107c0 1.409218 2.9608457 2.9842264 6.9249356 2.9842264 3.96409 0 6.9270612-1.5771339 6.9270612-2.9842264l.0007887-1.5190368c-1.5904487 1.1036797-4.0582773 1.786852-6.9278499 1.786852zm0-7.8686654c-3.9640899 0-6.9249356 1.5750083-6.9249356 2.9842264 0 1.409218 2.9608457 2.9842264 6.9249356 2.9842264 3.96409 0 6.9249368-1.5750084 6.9249368-2.9842264.0021244-1.4092181-2.9608468-2.9842264-6.9249368-2.9842264z" fill-rule="nonzero" opacity=".5"/></g></svg>

<?xml version="1.0" encoding="UTF-8"?>
<svg width="40px" height="40px" viewBox="0 0 40 40" version="1.1" xmlns="http://www.w3.org/2000/svg" xmlns:xlink="http://www.w3.org/1999/xlink">
    <title>编组 8</title>
    <g id="20220814" stroke="none" stroke-width="1" fill="none" fill-rule="evenodd">
        <g id="切图" transform="translate(-131.000000, -144.000000)" fill="#1C6AFD">
            <g id="编组-8" transform="translate(131.000000, 144.000000)">
                <rect id="矩形" fill-opacity="0.05" x="0" y="0" width="40" height="40" rx="5"></rect>
                <path d="M28.652422,25.1176865 C28.652422,27.9021143 24.8562479,30 19.8251482,30 C14.7940486,30 11,27.9021143 11,25.1176865 L11,15.884439 C11,13.1000112 14.7940486,11 19.8251482,11 C24.807326,11 28.5763945,13.0593692 28.6492235,15.803408 C28.651267,15.8299804 28.652422,15.857074 28.652422,15.884439 L28.652422,25.1176865 Z M12.9001012,23.5978504 L12.9002126,25.1176865 C12.9002126,26.5269046 15.8610583,28.101913 19.8251482,28.101913 C23.7892382,28.101913 26.7522094,26.5247791 26.7522094,25.1176865 L26.7524619,23.598455 C25.1615873,24.7011615 22.6941614,25.3833762 19.8251482,25.3833762 C16.9567251,25.3833762 14.4904151,24.7007512 12.9001012,23.5978504 Z M19.8251482,20.768878 C16.9567251,20.768878 14.4904151,20.0862529 12.9001012,18.9833521 L12.9002126,20.5010628 C12.9002126,21.9102808 15.8610583,23.4852892 19.8251482,23.4852892 C23.7892382,23.4852892 26.7522094,21.9081553 26.7522094,20.5010628 L26.7529981,18.982026 C25.1625494,20.0857057 22.6947208,20.768878 19.8251482,20.768878 Z M19.8251482,12.9002126 C15.8610583,12.9002126 12.9002126,14.4752209 12.9002126,15.884439 C12.9002126,17.293657 15.8610583,18.8686654 19.8251482,18.8686654 C23.7892382,18.8686654 26.750085,17.293657 26.750085,15.884439 C26.7522094,14.4752209 23.7892382,12.9002126 19.8251482,12.9002126 Z" id="形状结合" fill-rule="nonzero" opacity="0.5"></path>
            </g>
        </g>
    </g>
</svg>
